X:14
T:Inisheer
R:waltz
M:3/4
L:1/8
Q:1/4=120
K:Bm
B2 BA B<d|B2 BA B<d |E2 EB AB    |D4 (3BAG|
B2 BA B<d|B2 BA B<d |G3 B A/2G/2F|1G4 (3BAG :|2 G2 GA BD ||
|:e2 ef ed|B2 BA B<d|gf ed Bd|e2 ed Bd|
e2 ef ed|1 B2 BA B<d|E2 EB A/2G/2F|G2 GA Bd:|2 B2 B2 d2|G3B (3AGF|G4||
